icons/square-list.svg

<svg xmlns="http://www.w3.org/2000/svg" width="24" height="24" viewBox="0 0 24 24">
  <path d="M20,2 C21.1045695,2 22,2.8954305 22,4 L22,20 C22,21.1045695 21.1045695,22 20,22 L4,22 C2.8954305,22 2,21.1045695 2,20 L2,4 C2,2.8954305 2.8954305,2 4,2 L20,2 Z M17,13 L7,13 L6.88337887,13.0067277 C6.38604019,13.0644928 6,13.4871642 6,14 C6,14.5522847 6.44771525,15 7,15 L7,15 L17,15 L17.1166211,14.9932723 C17.6139598,14.9355072 18,14.5128358 18,14 C18,13.4477153 17.5522847,13 17,13 L17,13 Z M17,9 L7,9 L6.88337887,9.00672773 C6.38604019,9.06449284 6,9.48716416 6,10 C6,10.5522847 6.44771525,11 7,11 L7,11 L17,11 L17.1166211,10.9932723 C17.6139598,10.9355072 18,10.5128358 18,10 C18,9.44771525 17.5522847,9 17,9 L17,9 Z"/>
</svg>

<svg xmlns="http://www.w3.org/2000/svg" viewBox="0 0 24 24">
  <path d="M20 2a2 2 0 0 1 2 2v16a2 2 0 0 1-2 2H4a2 2 0 0 1-2-2V4c0-1.1.9-2 2-2h16zm-3 11H6.88A1 1 0 0 0 7 15h10.12a1 1 0 0 0-.12-2zm0-4H6.88A1 1 0 0 0 7 11h10.12A1 1 0 0 0 17 9z"/>
</svg>
